images/icons/code.svg

<svg xmlns="http://www.w3.org/2000/svg" width="24" height="24" viewBox="0 0 24 24"><g><path stroke="#000" stroke-linecap="round" stroke-linejoin="round" stroke-miterlimit="10" fill="none" d="M5.75 8.765l-2.77 2.769 2.77 2.77M9.211 8.765l2.769 2.769-2.769 2.77"/><g stroke="#000" stroke-linejoin="round" stroke-miterlimit="10" fill="none"><path stroke-linecap="round" d="M16 21.5l-3.5 1 1-3.5 7.502-7.501 2.5 2.5z"/><path d="M19.002 13.499l2.5 2.5"/><path stroke-linecap="round" d="M13.5 19l2.5 2.5"/></g><g stroke="#000" stroke-linejoin="round" stroke-miterlimit="10" fill="none"><path d="M11 21.5h-10.5v-21h11l5 5-.02 6.534"/><path stroke-linecap="round" d="M11.5.5v5h5"/></g></g></svg>

<?xml version="1.0" encoding="UTF-8" standalone="no"?>
<svg width="25px" height="23px" viewBox="0 0 25 23" version="1.1" xmlns="http://www.w3.org/2000/svg" xmlns:xlink="http://www.w3.org/1999/xlink" xmlns:sketch="http://www.bohemiancoding.com/sketch/ns">
    <!-- Generator: Sketch 3.5.1 (25234) - http://www.bohemiancoding.com/sketch -->
    <title>Group</title>
    <desc>Created with Sketch.</desc>
    <defs></defs>
    <g id="Page-1" stroke="none" stroke-width="1" fill="none" fill-rule="evenodd" sketch:type="MSPage">
        <g id="Group" sketch:type="MSLayerGroup" stroke="#FFFFFF">
            <path d="M5.75,8.765 L2.98,11.534 L5.75,14.304 M9.211,8.765 L11.98,11.534 L9.211,14.304" id="Shape" sketch:type="MSShapeGroup"></path>
            <path d="M16,21.5 L12.5,22.5 L13.5,19 L21.002,11.499 L23.502,13.999 L16,21.5 Z" id="Shape" sketch:type="MSShapeGroup"></path>
            <path d="M19.002,13.499 L21.502,15.999" id="Shape" sketch:type="MSShapeGroup"></path>
            <path d="M13.5,19 L16,21.5" id="Shape" sketch:type="MSShapeGroup"></path>
            <path d="M11,21.5 L0.5,21.5 L0.5,0.5 L11.5,0.5 L16.5,5.5 L16.48,12.034" id="Shape" sketch:type="MSShapeGroup"></path>
            <path d="M11.5,0.5 L11.5,5.5 L16.5,5.5" id="Shape" sketch:type="MSShapeGroup"></path>
        </g>
    </g>
</svg>
